docs/assets/images/zing_logo.svg

<svg viewBox="0 0 63 16" fill="none" xmlns="http://www.w3.org/2000/svg">
<path d="M0.345881 2.06495V4.636H3.60622L0 9.75633V10.763H8.07681V7.98199H4.47058L7.91148 3.15859V2.06495H0.345881ZM9.42921 10.763V2.05774H12.8179V10.7558L9.42921 10.763ZM23.8925 10.763V5.93961C23.8925 2.8399 22.2616 1.87667 20.3537 1.85491C19.3994 1.84043 18.2646 2.15185 17.4987 3.01369L17.348 2.06495H14.3581V10.763H17.6938V6.18589C17.6938 5.04159 18.4451 4.51286 19.2493 4.51286C19.8729 4.51286 20.5111 4.88221 20.5111 5.95409V10.763H23.8925ZM25.1847 11.3786C25.0042 14.0366 26.8149 15.6588 30.0607 15.6588C32.6451 15.6588 35.1919 14.6015 35.1919 11.7842C35.1919 11.3062 35.0795 10.075 33.4116 9.16246C34.4559 8.43824 35.0418 7.36636 35.057 6.27278C35.102 5.41094 34.7938 4.57079 34.1927 3.93347L35.3725 2.59368L32.9381 0.920654C32.6451 1.29001 32.2768 1.73184 31.9693 2.11567C31.3681 1.89836 30.7365 1.78977 30.0984 1.7825C27.2957 1.7825 25.0571 3.50618 25.0571 6.23654C25.0571 8.93073 27.0556 10.6182 30.0984 10.6182C31.3231 10.6182 31.7285 11.1468 31.7285 11.777C31.7285 12.6243 30.9396 13.0299 30.0607 13.0299C29.1665 13.0299 28.3174 12.733 28.3551 11.3786H25.1847ZM30.0984 4.44044C31.0897 4.44044 31.8039 5.25163 31.8039 6.23654C31.8039 7.39532 30.9998 7.94575 30.0984 7.94575C29.1064 7.94575 28.3399 7.27946 28.3399 6.23654C28.3399 5.07055 29.1064 4.44044 30.0984 4.44044ZM40.6995 11.3786C40.5189 14.0366 42.3296 15.6588 45.5754 15.6588C48.1599 15.6588 50.7073 14.6015 50.7073 11.7842C50.7073 11.3062 50.5942 10.075 48.9264 9.16246C49.9706 8.43824 50.5566 7.36636 50.5718 6.27278C50.6167 5.41094 50.3092 4.57079 49.7081 3.93347L50.8799 2.59368L48.4529 0.920654C48.1599 1.29001 47.7922 1.73184 47.484 2.11567C46.8829 1.89836 46.252 1.78977 45.6131 1.7825C42.8104 1.7825 40.5718 3.50618 40.5718 6.23654C40.5718 8.93073 42.5703 10.6182 45.6131 10.6182C46.8379 10.6182 47.2433 11.1468 47.2433 11.777C47.2433 12.6243 46.4543 13.0299 45.5754 13.0299C44.674 13.0299 43.8322 12.733 43.8699 11.3786H40.6995ZM45.6131 4.44044C46.6051 4.44044 47.3187 5.25163 47.3187 6.23654C47.3187 7.39532 46.5145 7.94575 45.6131 7.94575C44.6211 7.94575 43.8553 7.27946 43.8553 6.23654C43.8474 5.07055 44.6211 4.44044 45.6131 4.44044ZM51.9844 11.3786C51.8038 14.0366 53.6145 15.6588 56.8603 15.6588C59.4448 15.6588 61.9922 14.6015 61.9922 11.7842C61.9922 11.3062 61.8791 10.075 60.2113 9.16246C61.2555 8.43824 61.8415 7.36636 61.8567 6.27278C61.9016 5.41094 61.5941 4.57079 60.993 3.93347L62.1648 2.59368L59.7378 0.920654C59.4448 1.29001 59.0771 1.73184 58.7689 2.11567C58.1678 1.89836 57.5369 1.78977 56.898 1.7825C54.0953 1.7825 51.8567 3.50618 51.8567 6.23654C51.8567 8.93073 53.8553 10.6182 56.898 10.6182C58.1228 10.6182 58.5282 11.1468 58.5282 11.777C58.5282 12.6243 57.7392 13.0299 56.8603 13.0299C55.9589 13.0299 55.1171 12.733 55.1548 11.3786H51.9844ZM56.898 4.44044C57.89 4.44044 58.6036 5.25163 58.6036 6.23654C58.6036 7.39532 57.7994 7.94575 56.898 7.94575C55.906 7.94575 55.1402 7.27946 55.1402 6.23654C55.1402 5.07055 55.906 4.44044 56.898 4.44044Z" fill="#32375E"/>
<path d="M37.8268 4.75171C38.3168 4.75171 38.6574 4.92888 38.8783 5.1739C39.1038 5.42461 39.2235 5.76751 39.2222 6.12086C39.2215 6.4742 39.1011 6.81776 38.8736 7.06914C38.6521 7.31475 38.3122 7.49153 37.8268 7.49153C37.3532 7.49153 37.0186 7.31614 36.7991 7.07039C36.5742 6.81869 36.4532 6.47414 36.4512 6.11973C36.4492 5.76539 36.5663 5.42243 36.7891 5.17231C37.006 4.92822 37.342 4.75171 37.8268 4.75171Z" fill="#3F7BDA" stroke="#3F7BDA"/>
</svg>

<svg xmlns="http://www.w3.org/2000/svg" fill="none" viewBox="0 0 63 16"><path fill="#32375E" d="M.346 2.065v2.571h3.26L0 9.756v1.007h8.077V7.982H4.47l3.44-4.823V2.065H.346zm9.083 8.698V2.058h3.389v8.698l-3.389.007zm14.463 0V5.94c0-3.1-1.63-4.063-3.538-4.085-.955-.015-2.09.297-2.855 1.159l-.151-.949h-2.99v8.698h3.336V6.186c0-1.144.751-1.673 1.555-1.673.624 0 1.262.37 1.262 1.441v4.809h3.381zm1.293.616c-.18 2.658 1.63 4.28 4.876 4.28 2.584 0 5.13-1.058 5.13-3.875 0-.478-.111-1.709-1.78-2.622 1.045-.724 1.63-1.796 1.646-2.89a3.16 3.16 0 0 0-.864-2.339l1.18-1.34L32.938.922c-.293.369-.661.81-.969 1.195a5.685 5.685 0 0 0-1.87-.334c-2.803 0-5.042 1.724-5.042 4.455 0 2.694 1.999 4.381 5.041 4.381 1.225 0 1.63.529 1.63 1.159 0 .847-.788 1.253-1.667 1.253-.895 0-1.744-.297-1.706-1.651h-3.17zm4.913-6.939c.992 0 1.706.812 1.706 1.797 0 1.158-.804 1.709-1.706 1.709-.992 0-1.758-.667-1.758-1.71 0-1.165.766-1.796 1.758-1.796zM40.7 11.38c-.181 2.658 1.63 4.28 4.875 4.28 2.585 0 5.132-1.058 5.132-3.875 0-.478-.113-1.709-1.78-2.622 1.044-.724 1.63-1.796 1.645-2.89a3.16 3.16 0 0 0-.864-2.339l1.172-1.34L48.453.922c-.293.369-.66.81-.969 1.195a5.68 5.68 0 0 0-1.87-.334c-2.804 0-5.042 1.724-5.042 4.455 0 2.694 1.998 4.381 5.041 4.381 1.225 0 1.63.529 1.63 1.159 0 .847-.789 1.253-1.668 1.253-.901 0-1.743-.297-1.705-1.651H40.7zm4.913-6.939c.992 0 1.706.812 1.706 1.797 0 1.158-.805 1.709-1.706 1.709-.992 0-1.758-.667-1.758-1.71-.008-1.165.766-1.796 1.758-1.796zm6.371 6.939c-.18 2.658 1.63 4.28 4.876 4.28 2.585 0 5.132-1.058 5.132-3.875 0-.478-.113-1.709-1.78-2.622 1.043-.724 1.63-1.796 1.645-2.89a3.16 3.16 0 0 0-.864-2.339l1.172-1.34L59.738.922c-.293.369-.66.81-.97 1.195a5.68 5.68 0 0 0-1.87-.334c-2.803 0-5.041 1.724-5.041 4.455 0 2.694 1.998 4.381 5.041 4.381 1.225 0 1.63.529 1.63 1.159 0 .847-.789 1.253-1.668 1.253-.901 0-1.743-.297-1.705-1.651h-3.17zm4.914-6.939c.992 0 1.706.812 1.706 1.797 0 1.158-.805 1.709-1.706 1.709-.992 0-1.758-.667-1.758-1.71 0-1.165.766-1.796 1.758-1.796z"/><path fill="#3F7BDA" stroke="#3F7BDA" d="M37.827 4.752c.49 0 .83.177 1.051.422.226.25.346.594.344.947 0 .353-.12.697-.348.948-.222.246-.562.423-1.047.423-.474 0-.808-.176-1.028-.422a1.442 1.442 0 0 1-.348-.95 1.413 1.413 0 0 1 .338-.948c.217-.244.553-.42 1.038-.42z"/></svg>
